dist/img/icons/benefits/box.svg

<svg width="27" height="27" viewBox="0 0 27 27" fill="none" xmlns="http://www.w3.org/2000/svg">
<g clip-path="url(#clip0)">
<path d="M26.4083 6.76756V6.73946C26.3802 6.68325 26.3521 6.65515 26.324 6.62704L26.2959 6.59894C26.2678 6.59894 26.2678 6.57084 26.2397 6.57084C26.2116 6.57084 26.1835 6.54273 26.1554 6.54273C26.1554 6.54273 26.1554 6.54273 26.1273 6.54273L9.26517 0.950141C9.12465 0.893934 8.98413 0.922037 8.87172 1.00635L0.609296 6.57084L0.581192 6.59894C0.553089 6.62704 0.496882 6.65515 0.496882 6.71135C0.496882 6.73946 0.468778 6.73946 0.468778 6.76756C0.440675 6.79566 0.440675 6.85187 0.440675 6.90808V6.93618V20.4258C0.412571 20.6226 0.524985 20.7912 0.72171 20.8474L16.7688 25.8498C16.825 25.8498 16.8531 25.8779 16.9093 25.8779C16.9655 25.8779 17.0217 25.8779 17.0779 25.8498H17.106H17.1341L26.2116 20.8474C26.3521 20.7631 26.4364 20.6226 26.4364 20.454V6.93618V6.90808V6.87997C26.4364 6.82384 26.4083 6.79566 26.4083 6.76756ZM9.18086 1.87756L24.8626 7.0486L21.4059 8.93153L6.03327 4.01342L9.18086 1.87756ZM16.4597 24.782L1.31188 20.0887V7.58263L16.4597 12.2759V24.782ZM16.8531 11.4327L1.90206 6.79566L5.04965 4.6598L20.2817 9.5498L16.8531 11.4327ZM25.5371 20.1449L17.359 24.6414V12.2197L25.5371 7.72315V20.1449Z" fill="white"/>
<path d="M23.626 11.32C23.5136 11.0952 23.2325 11.0109 23.0077 11.1233L19.9444 12.7252C19.7196 12.8376 19.6353 13.1187 19.7477 13.3435C19.832 13.5121 20.0006 13.5964 20.1411 13.5964C20.2255 13.5964 20.2817 13.5683 20.366 13.5402L23.4293 11.9383C23.6541 11.8259 23.7384 11.5449 23.626 11.32Z" fill="white"/>
</g>
<defs>
<clipPath id="clip0">
<rect width="26" height="26" fill="white" transform="translate(0.436279 0.399414)"/>
</clipPath>
</defs>
</svg>

<svg width="27" height="27" fill="none" xmlns="http://www.w3.org/2000/svg"><g clip-path="url(#clip0)" fill="#fff"><path d="M26.408 6.768v-.029c-.028-.056-.056-.084-.084-.112l-.028-.028c-.028 0-.028-.028-.056-.028s-.056-.028-.085-.028h-.028L9.265.95a.395.395 0 00-.393.056L.609 6.571l-.028.028c-.028.028-.084.056-.084.112 0 .028-.028.028-.028.057-.028.028-.028.084-.028.14v13.518a.373.373 0 00.28.421L16.77 25.85c.056 0 .084.028.14.028.056 0 .113 0 .169-.028h.056l9.078-5.003a.448.448 0 00.224-.393V6.88c0-.056-.028-.084-.028-.112zM9.181 1.878l15.682 5.17-3.457 1.884L6.033 4.013l3.148-2.135zm7.279 22.904L1.312 20.089V7.583l15.148 4.693v12.506zm.393-13.35L1.903 6.797 5.05 4.66l15.232 4.89-3.429 1.883zm8.684 8.713L17.36 24.64V12.22l8.178-4.497v12.422z"/><path d="M23.626 11.32a.461.461 0 00-.618-.197l-3.064 1.602a.461.461 0 00-.196.619.454.454 0 00.393.252c.085 0 .14-.028.225-.056l3.063-1.602a.461.461 0 00.197-.618z"/></g><defs><clipPath id="clip0"><path fill="#fff" transform="translate(.436 .4)" d="M0 0h26v26H0z"/></clipPath></defs></svg>
